!!!OTL: WILLST DU DENN MEIN SOEHNCHEN HABEN
!!!ARE: Europa, Mitteleuropa, Deutschland, Brandenburg
!!!SCT: E0890
!!!YEM: Copyright 1995, estate of Helmut Schaffrath.
**kern
*ICvox
*Ivox
!! Mixed meters:  3/4; 2/4
*M3/4
*k[b-]
*F:
{8.f
16a
=1
4cc
4cc
8.ff
16dd
=2
*M2/4
8dd
8cc
4cc}
=3
{8.a
16cc
=4
*M3/4
4b-
4g
8cc
8b-
=5
*M2/4
4a
4r}
=6
{8a
8cc
=7
*M3/4
8cc
8b-
8dd
8b-
8g
8b-
=8
*M2/4
8b-
8a
8cc
8a}
=9
*M3/4
{8f
8a
8a
8a
8.b-
16g
=10
*M2/4
4g
4f}
=11
{8a
8cc
=12
*M3/4
8cc
8b-
8dd
8b-
8g
8b-
=13
*M2/4
8b-
8a
8cc
8a}
=14
*M3/4
{8f
8a
8a
8a
8.b-
16g
=15
4g
4f}
==
!!!AGN: Hochzeits -, Ehestands - Lied, Scherz - Lied, Bettelhochzeit
!!!ONB: ESAC (Essen Associative Code) Database: ERK2
!!!AMT: irregular
!!!AIN: vox
!!!EED: Helmut Schaffrath
!!!EEV: 1.0
*-
